X: 28749
T: My Home
R: waltz
M: 3/4
K: Amajor
ed|"A"c3 B c2|A2 c2 e2|"D"a3 g f2|"A"e4 d2|
c3 B c2|A2 c2 e2|"Bm"d3 c d2|"E"B4 ed|"A"c3 B c2|A2 c2 e2|
"D"a3 g f2|"A"e4 d2|c A3 c2|"G"B =G3 B2|"A"A6|A4:|
|:e2|"A"A3 B c2|c3 B c2|e4 c2|c4 e2|"E"d3 c d2|B3 c d2|
"A"e3 c A2|A3 c e2|"D"f3 d f2|a3 g f2|"A"e3 d c2|a3 e d2|
c A3 c2|"G"B =G3 B2|"A"A6|A4:|

